assets/viblo.svg

<?xml version="1.0" encoding="utf-8"?>
<svg viewBox="77.718 47.963 320.7 400" xmlns="http://www.w3.org/2000/svg">
  <path id="V" class="st1" d="M 214.218 375.963 L 262.618 375.963 L 398.418 48.263 L 349.818 47.963 L 276.018 225.763 L 199.818 225.763 L 126.318 47.963 L 77.718 47.963 L 214.218 375.963 Z M 97.218 406.863 L 379.018 406.863 L 379.018 447.963 L 97.218 447.963 L 97.218 406.863 Z" style="fill: rgb(83, 135, 198);"/>
</svg>

<svg viewBox="77.718 47.963 320.7 400" xmlns="http://www.w3.org/2000/svg"><path class="st1" d="M214.218 375.963h48.4l135.8-327.7-48.6-.3-73.8 177.8h-76.2l-73.5-177.8h-48.6l136.5 328zm-117 30.9h281.8v41.1h-281.8v-41.1z" fill="#5387c6"/></svg>
